X:1
T:Haughs of Delbagie, The
T:Haughs of Delbagie, The
T:Alexander Walker
C:Alexander Walker
L:1/8
M:4/4
K:Emin
V:1 treble 
V:1
 (B<E)E>F G>A B>e | g>ef>d F>d (G/F/).E/.D/ | (B<E)E>F G>AB>e | g>e (b/a/)g/f/ e2 e :| g | %5
 b>ef>d e<BB>c | d/^d/B/A/ d>A F>A D>f | b>ef>d B<ee>f | (d/^c/)B/A/ (B/A/)G/F/ (E2 E>)f | %9
 g>eb>e B<ee>g | f>d f/e/d/c/ d<DD>F | (B<E)E>F G>A B>f | g>e (b/a/)g/f/ (e2 e) || %13

